assets/icons/camera-24.svg

<svg width="24" height="24" viewBox="0 0 24 24" fill="none" xmlns="http://www.w3.org/2000/svg">
<path fill-rule="evenodd" clip-rule="evenodd" d="M7.76361 4.3356C7.98823 2.98783 9.15433 2 10.5207 2H13.4793C14.8457 2 16.0118 2.98783 16.2364 4.3356C16.3003 4.719 16.632 5 17.0207 5H19C21.2091 5 23 6.79086 23 9V18C23 20.2091 21.2091 22 19 22H5C2.79086 22 1 20.2091 1 18V9C1 6.79086 2.79086 5 5 5H6.97931C7.36799 5 7.69971 4.719 7.76361 4.3356ZM10.5207 4C10.132 4 9.80029 4.281 9.73639 4.6644C9.51177 6.01217 8.34567 7 6.97931 7H5C3.89543 7 3 7.89543 3 9V18C3 19.1046 3.89543 20 5 20H19C20.1046 20 21 19.1046 21 18V9C21 7.89543 20.1046 7 19 7H17.0207C15.6543 7 14.4882 6.01217 14.2636 4.6644C14.1997 4.281 13.868 4 13.4793 4H10.5207ZM12 10C10.3431 10 9 11.3431 9 13C9 14.6569 10.3431 16 12 16C13.6569 16 15 14.6569 15 13C15 11.3431 13.6569 10 12 10ZM7 13C7 10.2386 9.23858 8 12 8C14.7614 8 17 10.2386 17 13C17 15.7614 14.7614 18 12 18C9.23858 18 7 15.7614 7 13Z" fill="#F2F2F2"/>
</svg>

<svg xmlns="http://www.w3.org/2000/svg" width="24" height="24" viewBox="0 0 24 24"><path fill-rule="evenodd" d="M7.764 4.336A2.795 2.795 0 0110.52 2h2.958c1.367 0 2.533.988 2.757 2.336A.795.795 0 0017.02 5H19a4 4 0 014 4v9a4 4 0 01-4 4H5a4 4 0 01-4-4V9a4 4 0 014-4h1.98c.388 0 .72-.281.784-.664zM10.52 4a.795.795 0 00-.785.664A2.795 2.795 0 016.98 7H5a2 2 0 00-2 2v9a2 2 0 002 2h14a2 2 0 002-2V9a2 2 0 00-2-2h-1.98a2.795 2.795 0 01-2.756-2.336.795.795 0 00-.785-.664h-2.958zM12 10a3 3 0 100 6 3 3 0 000-6zm-5 3a5 5 0 1110 0 5 5 0 01-10 0z"/></svg>
